components/AnnouncementBar/logos/color-auth0.svg

<svg width="262" height="130" viewBox="0 0 262 130" fill="none" xmlns="http://www.w3.org/2000/svg">
<path d="M129.845 72.1174H118.573C118.49 72.1181 118.412 72.081 118.362 72.0172C118.312 71.9542 118.296 71.8721 118.319 71.7958L123.952 52.9543C123.983 52.8424 124.087 52.7643 124.207 52.7643C124.326 52.7643 124.43 52.8424 124.461 52.9543L130.095 71.7958C130.117 71.8721 130.101 71.9542 130.051 72.0172C130.002 72.0798 129.926 72.1168 129.845 72.1174ZM135.091 88.4361H142.413L131.249 51.0915C130.319 48.0743 127.456 46.0072 124.209 46.0072C120.961 46.0072 118.099 48.0743 117.169 51.0915L106 88.4403H113.344L116.57 77.6266C116.603 77.5171 116.706 77.4421 116.824 77.4428H131.581C131.698 77.4421 131.802 77.5171 131.835 77.6266L135.091 88.4361ZM176.363 66.9883H180.67C180.815 66.9883 180.933 67.1024 180.933 67.2431V81.9746C180.961 85.8719 184.236 89.012 188.255 88.9959C189.713 88.9984 191.164 88.7958 192.562 88.3944V83.5535C191.752 83.6203 190.839 83.6662 190.163 83.6662C188.973 83.6662 188.009 82.7312 188.009 81.5779V67.239C188.009 67.0982 188.127 66.9842 188.272 66.9842H192.579V61.6629H188.272C188.127 61.6629 188.009 61.5489 188.009 61.4082V52.5659H180.907V61.4082C180.907 61.5489 180.789 61.6629 180.644 61.6629H176.337L176.363 66.9883ZM217.079 88.4361H224.121V69.9455C224.081 65.0412 219.957 61.0926 214.899 61.1158C211.986 61.1695 209.149 62.0225 206.715 63.5759C206.632 63.6238 206.528 63.6238 206.444 63.5759C206.36 63.5319 206.307 63.4471 206.306 63.3545V46.5555H199.23V88.4361H206.289V68.4168C206.288 68.3215 206.343 68.2341 206.431 68.1913C207.758 67.5355 210.377 66.4328 213 66.4328C214.074 66.4293 215.106 66.8394 215.868 67.5731C216.625 68.2928 217.054 69.2766 217.057 70.3047V88.4194L217.079 88.4361ZM146.363 61.6629V80.1536C146.396 85.0628 150.522 89.019 155.585 88.9959C158.844 88.9413 162.002 87.8855 164.604 85.9802C164.673 85.9292 164.762 85.9136 164.845 85.9384C164.927 85.9634 164.992 86.0258 165.017 86.1055L165.763 88.4403H171.271V61.6629H164.195V81.6865C164.194 81.7815 164.14 81.8684 164.053 81.912C162.726 82.5678 160.107 83.6704 157.484 83.6704C155.258 83.6797 153.443 81.9407 153.427 79.7818V61.6629H146.363ZM244.757 83.6704C242.603 83.6704 240.88 82.4926 239.515 80.07C237.874 77.1463 236.969 72.6813 236.969 67.5021C236.969 62.3229 237.874 57.8579 239.515 54.9341C240.872 52.5116 242.586 51.3338 244.757 51.3338C246.928 51.3338 248.633 52.5116 249.999 54.9341C251.64 57.8579 252.544 62.3229 252.544 67.5021C252.544 72.6813 251.64 77.1463 249.999 80.07C248.642 82.4884 246.928 83.6704 244.757 83.6704ZM244.757 46.0042C240.217 46.0042 236.375 48.055 233.653 51.9352C230.931 55.8154 229.514 61.1743 229.514 67.5021C229.514 73.8299 230.944 79.1971 233.653 83.069C236.362 86.9408 240.217 89 244.757 89C249.297 89 253.139 86.9492 255.861 83.069C258.583 79.1887 260 73.8216 260 67.4979C260 61.1743 258.57 55.8029 255.861 51.931C253.152 48.0592 249.297 46 244.757 46V46.0042Z" fill="#141F48"/>
<path d="M83.997 49.4293L74.7783 21H44.9926L54.1988 49.4293H83.997ZM44.9926 21H15.2112L6.0092 49.4293H35.7907L44.9926 21ZM6.0092 49.4293C0.521298 66.3812 6.5328 84.9519 20.9 95.4293L30.1019 67L6.0092 49.4293ZM83.98 49.4293L59.8707 67L69.0726 95.4293C83.452 84.961 89.478 66.3885 83.997 49.4293H83.98ZM20.9 95.4293L44.9969 113L69.0896 95.4293L44.9926 77.8585L20.9 95.4293Z" fill="#DE5022"/>
</svg>

<svg xmlns="http://www.w3.org/2000/svg" width="262" height="130" viewBox="0 0 262 130">
  <path fill="#141F48" d="M129.845 72.117h-11.272a.265.265 0 0 1-.211-.1.242.242 0 0 1-.043-.221l5.633-18.842a.263.263 0 0 1 .255-.19c.119 0 .223.078.254.19l5.634 18.842a.246.246 0 0 1-.044.221.264.264 0 0 1-.206.1Zm5.246 16.32h7.322l-11.164-37.345c-.93-3.018-3.793-5.085-7.04-5.085-3.248 0-6.11 2.067-7.04 5.085L106 88.44h7.344l3.226-10.813a.262.262 0 0 1 .254-.184h14.757c.117 0 .221.074.254.184l3.256 10.81Zm41.272-21.449h4.307a.26.26 0 0 1 .263.255v14.732c.028 3.897 3.303 7.037 7.322 7.02 1.458.003 2.909-.2 4.307-.6v-4.841c-.81.066-1.723.112-2.399.112-1.19 0-2.154-.935-2.154-2.088V67.239a.26.26 0 0 1 .263-.255h4.307v-5.321h-4.307a.26.26 0 0 1-.263-.255v-8.842h-7.102v8.842a.26.26 0 0 1-.263.255h-4.307l.026 5.325Zm40.716 21.448h7.042v-18.49c-.04-4.905-4.164-8.853-9.222-8.83a15.76 15.76 0 0 0-8.184 2.46.273.273 0 0 1-.271 0 .254.254 0 0 1-.138-.221v-16.8h-7.076v41.881h7.059v-20.02a.249.249 0 0 1 .142-.225c1.327-.656 3.946-1.758 6.569-1.758a4.117 4.117 0 0 1 2.868 1.14 3.785 3.785 0 0 1 1.189 2.732v18.114l.022.017Zm-70.716-26.773v18.49c.033 4.91 4.159 8.866 9.222 8.843a15.72 15.72 0 0 0 9.019-3.016.273.273 0 0 1 .241-.042.258.258 0 0 1 .172.168l.746 2.334h5.508V61.663h-7.076v20.023a.255.255 0 0 1-.142.226c-1.327.656-3.946 1.758-6.569 1.758-2.226.01-4.041-1.73-4.057-3.888v-18.12h-7.064Zm98.394 22.007c-2.154 0-3.877-1.177-5.242-3.6-1.641-2.924-2.546-7.389-2.546-12.568 0-5.18.905-9.644 2.546-12.568 1.357-2.422 3.071-3.6 5.242-3.6s3.876 1.178 5.242 3.6c1.641 2.924 2.545 7.389 2.545 12.568 0 5.18-.904 9.644-2.545 12.568-1.357 2.418-3.071 3.6-5.242 3.6Zm0-37.666c-4.54 0-8.382 2.051-11.104 5.931-2.722 3.88-4.139 9.24-4.139 15.567 0 6.328 1.43 11.695 4.139 15.567 2.709 3.872 6.564 5.931 11.104 5.931 4.54 0 8.382-2.05 11.104-5.931 2.722-3.88 4.139-9.247 4.139-15.571s-1.43-11.695-4.139-15.567C253.152 48.059 249.297 46 244.757 46v.004Z"/>
  <path fill="#DE5022" d="M83.997 49.43 74.778 21H44.993l9.206 28.43h29.798ZM44.993 21H15.21l-9.2 28.43h29.782L44.993 21ZM6.009 49.43c-5.488 16.951.524 35.522 14.891 46L30.102 67 6.009 49.43Zm77.971 0L59.87 67l9.203 28.43c14.379-10.469 20.405-29.042 14.924-46h-.017Zm-63.08 46L44.997 113 69.09 95.43 44.993 77.857 20.9 95.43Z"/>
</svg>
